X: 40185
T: Timmy Clifford's
R: jig
M: 6/8
K: Gmajor
|:G,B,D E2E|DGF G2G|G,B,D CAB|AGF GDB,|
G,B,D E2E|DB,D GAB|d2d BBB|1 AGF GDB,:|2 AGF GBd||
|:e2e ddd|BBB GBd|e2e d2d|BAG ABd|
efe ded|BdB GAB|c2A BAG|1 AGF GBd:|2 AGF GDB,||

